X:520
T: Ceanngulla
S: "Johnny O'Leary of Sliabh Luachra" (#166)
Z: B.Black
N: version of "Lakes of Sligo"
L: 1/8
M: 2/4
Q: 280
R: polka
K: D
A>B AF|AB de|fa f>e|dB B/c/d/B/|
A>B AF|AB de|fa e/f/g/e/|d2 d2 :|
fa ab/a/|gf/g/ ba|fa ef/e/|dB BA|
fa ab/a/|gf/g/ ba|fa ef/e/|d2 d2|
fa ab/a/|gb ba|fa ef/e/|dB Bd|
A>B AF|AB de|fa e/f/g/e/|d2 d2 ||
